X:1
T:Under His Wings
T:Ira David Sankey
T:Under His Wings
T:Public Domain
T:Public Domain
C:Ira David Sankey
Z:Public Domain
%%score ( 1 2 ) ( 3 4 )
L:1/8
M:6/4
K:Db
V:1 treble 
V:2 treble 
V:3 bass 
V:4 bass 
V:1
 [DF]2 [EG]2 [=E=G]2 [FA]4 [FA][FA] | [FA]2 [GB]2 [DF]2 [CA]2 [CG]4 | %2
w: 1.~Un- der His wings I am|safe- ly a- bid- ing,|
w: 2.~Un- der His wings, what a|ref- uge in sor- row!|
w: 3.~Un- der His wings, oh, what|pre- cious en- joy- ment!|
 [CE]2 [DF]2 [EG]2 [GB]2 [FA]2 [FA]2 | [FA]2 [CE]2 [C=E]2 [DF]6 | %4
w: Though the night deep- ens and|temp- ests are wild,|
w: How the heart yearn- ing- ly|turns to His rest!|
w: There will I hide till life’s|tri- als are o’er;|
 [DF]2 [EG]2 [=E=G]2 [FA]2 [FA]2 [Ad]2 | [Be]2 [Bd]2 [GB]2 [GB]2 [FA]4 | %6
w: Still I can trust Him; I|know He will keep me,|
w: Oft- en when earth has no|balm for my heal- ing,|
w: Shel- tered, pro- tect- ed, no|e- vil can harm me,|
 [GB]2 [Gc]2 [Gd]2 [Fd]2 [FA]2 [DF]2 | [FA]2 [EG]2 [CE]2 D6 ||"^Refrain" [FA]2 [DF]2 [FA]2 [Fd]6 | %9
w: He has re- deemed me, and|I am His child.||
w: There I find com- fort, and|there I am blessed.||
w: Rest- ing in Je- sus, I’m|safe ev- er- more.||
 [Gc]2 [GB]2 [Gc]2 [Fd]6 | [Fd]2 [FA]2 F2 ([GB]2 [FA]2) [DF]2 | [DF]2 [CE]8 z2 | %12
w: |||
w: |||
w: |||
 D2 [DF]2 [FA]2 [Fd]4 [Ac]2 | [Ge]2 [Gd]2 [GB]2 [FA]6 | [GB]2 [Gc]2 [Fd]2 ([FA]2 [DF]2) [A,D]2 | %15
w: |||
w: |||
w: |||
 [CE]6 D4 z2 |] %16
w: |
w: |
w: |
V:2
 x12 | x12 | x12 | x12 | x12 | x12 | x12 | x6 D6 || x12 | x12 | x4 F2 x6 | x12 | D2 x10 | x12 | %14
 x12 | x6 D4 x2 |] %16
V:3
 [D,A,]2 [D,A,]2 [D,B,]2 [D,D]4 [D,D][D,D] | [D,D]2 [D,D]2 [D,A,]2 [E,A,]2 [E,A,]4 | %2
w: ~ ~ ~ ~ ~ ~|~ ~ ~ ~ ~|
 [A,,A,]2 [A,,A,]2 [A,,A,]2 [A,,A,]2 [A,,A,]2 [A,,A,]2 | [A,,A,]2 [A,,A,]2 [A,,A,]2 [D,A,]6 | %4
w: ~ ~ ~ ~ ~ ~|~ ~ ~ ~|
 [D,A,]2 [D,A,]2 [D,B,]2 [D,D]2 [D,D]2 [F,D]2 | [G,D]2 [G,D]2 [G,D]2 [D,D]2 [D,D]4 | %6
w: ~ ~ ~ ~ ~ ~|~ ~ ~ ~ ~|
 [G,D]2 [G,C]2 [G,B,]2 [D,A,]2 [D,D]2 [D,A,]2 | [A,,A,]2 [A,,A,]2 [A,,G,]2 [D,F,]6 || %8
w: ~ ~ ~ ~ ~ ~|~ ~ ~ ~|
 [D,D]2 [D,D]2 [D,D]2 [D,A,]6 | A,2 [A,E]2 [A,,E]2 [D,A,]6 | [D,A,]2 [D,D]2 [D,D]2 [D,D]4 [F,A,]2 | %11
w: Un- der His wings,|un- der His wings,|from His love can se-|
 A,2 A,8 z2 | [D,F,]2 [D,A,]2 [D,D]2 [D,A,]4 [F,D]2 | [G,B,]2 [G,B,]2 [G,,D]2 [D,D]6 | %14
w: ver? Un-|wings my soul shall a-|bide, Safe- ly a-|
 [G,D]2 [E,A,]2 [D,A,]2 (D2 A,2) [D,F,]2 | [A,,G,]6 [D,F,]4 z2 |] %16
w: bide for- ev- er. * *||
V:4
 x12 | x12 | x12 | x12 | x12 | x12 | x12 | x12 || x12 | A,2 x10 | x12 | A,2 A,8 x2 | x12 | x12 | %14
w: |||||||||Who||der His|||
 x6 D,4 x2 | x12 |] %16
w: ||

